X: 593
T: Georgia Railroad
B: jims roots
M:2/4
L:1/8
Q: 1/4=100
K:A
V:1 
%Kuntz &#8211; Ragged but Right
(3efe|| "A"a2g2 (3fgf e2 | efed cBA2 | "E"B3c BABA | cABc ABcA |
        "A"a2g2 (3fgf e2 | efed cBA2 |  B3c BABA |"E"cABc "A"A2eg |
        "A"a2g2 (3fgf e2 | efed cBA2 | "E"B3c BABA | c4 BABA |
        "A"a2g2 (3fgf e2 | efed cBA2 |  B3c BABA | "E"cABc "A"A4 ||
|:"A"[A3c][Ad] cBA2 | [A3c][Ad] cBA2 | "E"B2Bc BAFD | EFAB cABA |
  "A"[A3c][Ad] cBA2 | [A3c][Ad] cBA2 | EFAB cABA | "E"cABc "A"A4 :|
% abcbook-tune_id 6298c25de2ec4602e57b534e


% abcbook-boost 0
% abcbook-tablature 
% abcbook-transpose 
% abcbook-lastupdated 1654178398209
% abcbook-soundfonts 
% abcbook-repeats 1


